X: 2106
T: Atholl Highlanders, The
R: jig
M: 6/8
K: Amajor
e3 ecA|ecA Bcd|e3 ecA|Bcd cBA|
e3 ecA|ecA Bcd|eae fed|1 cdB Acd:|2 cdB A3||
|:Ace Ace|Adf Adf|Ace Ace|Bcd c2B|
Ace Ace|Adf Adf|eae fed|1 cdB A3:|2 cdB Ace||
|:gae edc|gae edc|gae edc|Bcd efg|
gae edc|gae edc|eae fed|1 cdB Ace:|2 cdB A3||
|:ece ece|fdf fdf|ece ece|dBd dBd|
ece ece|fdf fdf|eae fed|cdB A3:|

